web/packages/design/src/ResourceIcon/assets/hackerone-light.svg

<svg width="72" height="72" viewBox="0 0 72 72" fill="none" xmlns="http://www.w3.org/2000/svg">
<g clip-path="url(#clip0_16877_8554)">
<path d="M25.4307 0.894368C24.4366 0.297212 23.3462 0.000488281 21.959 0.000488281C20.4717 0.000488281 19.2811 0.297212 18.3872 0.894368C17.497 1.48782 17 2.28155 17 3.27557V68.6289C17 69.4227 17.497 70.2164 18.3872 70.91C19.3812 71.6036 20.4717 72.0005 21.8588 72.0005C23.1014 72.0042 24.3142 71.6221 25.3305 70.91C26.3208 70.2164 26.8178 69.4227 26.8178 68.6289V3.27557C26.918 2.28155 26.421 1.48782 25.4307 0.894368ZM33.661 35.2067C33.0676 35.8039 32.7671 36.5976 32.9674 37.7845C33.0676 38.9751 33.5609 40.0656 34.5549 41.0596C35.4451 42.0499 36.5355 42.7435 37.7261 43.0439C38.9167 43.3407 39.8106 43.1404 40.4041 42.6471L45.6598 39.372V68.6289C45.6598 69.4227 46.1568 70.2164 47.0507 70.91C47.9408 71.6036 49.1315 72.0005 50.5186 72.0005C51.9095 72.0005 53.1001 71.6036 54.0904 70.91C55.0808 70.2164 55.5778 69.4227 55.5778 68.6289V29.1573C55.5778 28.167 55.0808 27.4734 54.0904 26.8762C53.1001 26.2828 51.9095 25.9861 50.4222 25.9861C48.9349 25.9861 47.8444 26.2828 46.9505 26.8762L33.661 35.2067Z" fill="black"/>
</g>
<defs>
<clipPath id="clip0_16877_8554">
<rect width="72" height="72" fill="white" transform="translate(0 0.000488281)"/>
</clipPath>
</defs>
</svg>

<svg xmlns="http://www.w3.org/2000/svg" width="72" height="72" fill="none" viewBox="0 0 72 72"><g clip-path="url(#a)"><path fill="#000" d="M25.43.894C24.438.297 23.347 0 21.96 0q-2.23 0-3.572.894C17.497 1.488 17 2.282 17 3.276v65.353c0 .794.497 1.587 1.387 2.281.994.694 2.085 1.09 3.472 1.09a6 6 0 0 0 3.471-1.09c.99-.694 1.488-1.487 1.488-2.281V3.276c.1-.994-.397-1.788-1.387-2.382m8.231 34.313c-.593.597-.894 1.39-.694 2.578.1 1.19.594 2.28 1.588 3.275.89.99 1.98 1.683 3.171 1.984 1.19.297 2.085.096 2.678-.397l5.256-3.275v29.257c0 .794.497 1.587 1.39 2.281.89.694 2.082 1.09 3.469 1.09 1.39 0 2.581-.396 3.571-1.09s1.488-1.487 1.488-2.281V29.157c0-.99-.497-1.684-1.488-2.28-.99-.594-2.18-.89-3.668-.89s-2.578.296-3.471.89z"/></g><defs><clipPath id="a"><path fill="#fff" d="M0 0h72v72H0z"/></clipPath></defs></svg>
